packages/kaspersky-hexa-ui-icons/src/iconsSVGs/28x20/FlagEs.svg

<svg width="28" height="20" viewBox="0 0 28 20" fill="none" xmlns="http://www.w3.org/2000/svg">
<g clip-path="url(#clip0_5138_755)">
<rect width="28" height="20" rx="2" fill="white"/>
<mask id="mask0_5138_755" style="mask-type:luminance" maskUnits="userSpaceOnUse" x="0" y="0" width="28" height="20">
<rect width="28" height="20" rx="2" fill="white"/>
</mask>
<g mask="url(#mask0_5138_755)">
<path fill-rule="evenodd" clip-rule="evenodd" d="M0 5.33333H28V0H0V5.33333Z" fill="#DD172C"/>
<path fill-rule="evenodd" clip-rule="evenodd" d="M0 20H28V14.6667H0V20Z" fill="#DD172C"/>
<path fill-rule="evenodd" clip-rule="evenodd" d="M0 14.6667H28V5.33334H0V14.6667Z" fill="#FFD133"/>
<path fill-rule="evenodd" clip-rule="evenodd" d="M7.33333 9.33333H8.66666V10H7.33333V9.33333Z" fill="#FFEDB1"/>
<mask id="path-7-inside-1_5138_755" fill="white">
<path fill-rule="evenodd" clip-rule="evenodd" d="M5.72684 9.38869C5.69445 9.00001 6.00118 8.66666 6.3912 8.66666H8.27547C8.6655 8.66666 8.97223 9.00001 8.93984 9.38869L8.76856 11.444C8.71097 12.1351 8.13328 12.6667 7.43983 12.6667H7.22685C6.5334 12.6667 5.95571 12.1351 5.89812 11.4441L5.72684 9.38869Z"/>
</mask>
<path fill-rule="evenodd" clip-rule="evenodd" d="M5.72684 9.38869C5.69445 9.00001 6.00118 8.66666 6.3912 8.66666H8.27547C8.6655 8.66666 8.97223 9.00001 8.93984 9.38869L8.76856 11.444C8.71097 12.1351 8.13328 12.6667 7.43983 12.6667H7.22685C6.5334 12.6667 5.95571 12.1351 5.89812 11.4441L5.72684 9.38869Z" stroke="#A41517" stroke-width="1.33333" mask="url(#path-7-inside-1_5138_755)"/>
<path fill-rule="evenodd" clip-rule="evenodd" d="M6 10H8.66667V10.6667H8L7.33333 12L6.66667 10.6667H6V10Z" fill="#A41517"/>
<rect x="4" y="8" width="1.33333" height="4.66667" rx="0.666667" fill="#A41517"/>
<rect x="9.33333" y="8" width="1.33333" height="4.66667" rx="0.666667" fill="#A41517"/>
<path d="M6 7.73332C6 7.14422 6.47756 6.66666 7.06667 6.66666H7.6C8.1891 6.66666 8.66667 7.14422 8.66667 7.73332C8.66667 7.8806 8.54728 7.99999 8.4 7.99999H6.26667C6.11939 7.99999 6 7.8806 6 7.73332Z" fill="#A41517"/>
</g>
</g>
<defs>
<clipPath id="clip0_5138_755">
<rect width="28" height="20" fill="white"/>
</clipPath>
</defs>
</svg>

<svg xmlns="http://www.w3.org/2000/svg" width="28" height="20" fill="none" viewBox="0 0 28 20"><g clip-path="url(#a)"><rect width="28" height="20" fill="#fff" rx="2"/><mask id="b" width="28" height="20" x="0" y="0" maskUnits="userSpaceOnUse" style="mask-type:luminance"><rect width="28" height="20" fill="#fff" rx="2"/></mask><g mask="url(#b)"><path fill="#dd172c" fill-rule="evenodd" d="M0 5.333h28V0H0zM0 20h28v-5.333H0z" clip-rule="evenodd"/><path fill="#ffd133" fill-rule="evenodd" d="M0 14.6667h28V5.3333H0z" clip-rule="evenodd"/><path fill="#ffedb1" fill-rule="evenodd" d="M7.3333 9.3333h1.3334V10H7.3333z" clip-rule="evenodd"/><mask id="c" fill="#fff"><path fill-rule="evenodd" d="M5.7268 9.3887a.6667.6667 0 0 1 .6644-.722h1.8843c.39 0 .6967.3333.6643.722l-.1712 2.0553c-.0576.6911-.6353 1.2227-1.3288 1.2227h-.213c-.6934 0-1.271-.5316-1.3287-1.2226z" clip-rule="evenodd"/></mask><path stroke="#a41517" d="M5.7268 9.3887a.6667.6667 0 0 1 .6644-.722h1.8843c.39 0 .6967.3333.6643.722l-.1712 2.0553c-.0576.6911-.6353 1.2227-1.3288 1.2227h-.213c-.6934 0-1.271-.5316-1.3287-1.2226z" clip-rule="evenodd" mask="url(#c)"/><path fill="#a41517" fill-rule="evenodd" d="M6 10h2.6667v.6667H8L7.3333 12l-.6666-1.3333H6z" clip-rule="evenodd"/><rect width="1" height="5" x="4" y="8" fill="#a41517" rx="1"/><rect width="1" height="5" x="9" y="8" fill="#a41517" rx="1"/><path fill="#a41517" d="M6 7.7333c0-.589.4776-1.0666 1.0667-1.0666H7.6c.5891 0 1.0667.4775 1.0667 1.0666A.2667.2667 0 0 1 8.4 8H6.2667A.2667.2667 0 0 1 6 7.7333"/></g></g><defs><clipPath id="a"><path fill="#fff" d="M0 0h28v20H0z"/></clipPath></defs></svg>
